svg/pharmacy.svg

<svg xmlns="http://www.w3.org/2000/svg" viewBox="0 0 24 24"><path d="M16 14h-3v3h-2v-3H8v-2h3V9h2v3h3m5-7h-2.65l1.15-3.15L17.15 1l-1.46 4H3v2l2 6-2 6v2h18v-2l-2-6 2-6z"/></svg>

<?xml version="1.0" encoding="UTF-8"?><!DOCTYPE svg PUBLIC "-//W3C//DTD SVG 1.1//EN" "http://www.w3.org/Graphics/SVG/1.1/DTD/svg11.dtd"><svg xmlns="http://www.w3.org/2000/svg" xmlns:xlink="http://www.w3.org/1999/xlink" version="1.1" id="mdi-pharmacy" width="24" height="24" viewBox="0 0 24 24"><path d="M16,14H13V17H11V14H8V12H11V9H13V12H16M21,5H18.35L19.5,1.85L17.15,1L15.69,5H3V7L5,13L3,19V21H21V19L19,13L21,7V5Z" /></svg>
